icons/small-2-column-16.svg

<?xml version="1.0" encoding="UTF-8"?><svg id="icons" xmlns="http://www.w3.org/2000/svg" viewBox="0 0 16 16"><defs><style>.cls-1{fill:none;}.cls-1,.cls-2,.cls-3,.cls-4{stroke-width:0px;}.cls-2{opacity:.5;}.cls-3{opacity:.25;}</style></defs><path class="cls-3" d="m13,3v2h-7v-2h3v2h1v-2h3Z"/><rect class="cls-1" width="16" height="16"/><path class="cls-4" d="m16,16H0V0h16v16Zm-15-1h14V1H1v14ZM14,6H5V2h9v4Zm-8-1h7v-2h-7v2Z"/><path class="cls-2" d="m10,5h-1v-2h1v2Z"/></svg>

<svg xmlns="http://www.w3.org/2000/svg" viewBox="0 0 16 16"><path d="M13 3v2H6V3h3v2h1V3h3z" opacity=".25" stroke-width="0"/><path stroke-width="0" fill="none" d="M0 0h16v16H0z"/><path d="M16 16H0V0h16v16zM1 15h14V1H1v14zm13-9H5V2h9v4zM6 5h7V3H6v2z" stroke-width="0"/><path d="M10 5H9V3h1v2z" opacity=".5" stroke-width="0"/></svg>
